X: 4240
M: 6/8
L: 1/8
K: Bb
|:\
d3  d2c | B2G G2B | F2F B2d | cde d3 |\
d3  d2c | B2G G2B | F2B d2B | c3  B3 ::\


